packages/components/bolt-icons/src/svgs/product/services/reporting.svg

<?xml version="1.0" encoding="UTF-8"?>
<svg width="32px" height="32px" viewBox="0 0 32 32" version="1.1" xmlns="http://www.w3.org/2000/svg" xmlns:xlink="http://www.w3.org/1999/xlink">
    <!-- Generator: Sketch 49.3 (51167) - http://www.bohemiancoding.com/sketch -->
    <title>brand icons/community/brand-reporting</title>
    <desc>Created with Sketch.</desc>
    <defs>
        <path d="M20.9409,0.3779 L24.3179,4.6219 C24.6619,5.0539 24.5889,5.6829 24.1579,6.0259 C23.9729,6.1729 23.7539,6.2439 23.5349,6.2439 C23.2419,6.2439 22.9499,6.1149 22.7519,5.8659 L20.9419,3.5909 C19.6859,11.8239 12.5789,18.1579 3.9999,18.1579 C3.4479,18.1579 2.9999,17.7109 2.9999,17.1579 C2.9999,16.6059 3.4479,16.1579 3.9999,16.1579 C11.6029,16.1579 17.8989,10.5249 18.9779,3.2169 L16.5369,5.1579 C16.1049,5.5019 15.4759,5.4319 15.1319,4.9979 C14.7889,4.5659 14.8599,3.9379 15.2929,3.5939 L19.5369,0.2179 C19.5699,0.1909 19.6109,0.1829 19.6479,0.1609 C19.7079,0.1239 19.7649,0.0889 19.8339,0.0659 C19.8989,0.0429 19.9639,0.0339 20.0329,0.0249 C20.0759,0.0199 20.1139,-0.0001 20.1589,-0.0001 C20.1779,-0.0001 20.1939,0.0099 20.2129,0.0109 C20.2829,0.0149 20.3479,0.0339 20.4159,0.0519 C20.4759,0.0679 20.5349,0.0799 20.5889,0.1069 C20.6439,0.1329 20.6889,0.1709 20.7379,0.2069 C20.7949,0.2489 20.8519,0.2889 20.8999,0.3429 C20.9119,0.3569 20.9289,0.3629 20.9409,0.3779 Z M3.9995,24.3076 C4.5525,24.3076 4.9995,24.7546 4.9995,25.3076 L4.9995,30.9996 C4.9995,31.5526 4.5525,31.9996 3.9995,31.9996 C3.4475,31.9996 2.9995,31.5526 2.9995,30.9996 L2.9995,25.3076 C2.9995,24.7546 3.4475,24.3076 3.9995,24.3076 Z M12.0015,19.4541 C12.5545,19.4541 13.0015,19.9011 13.0015,20.4541 L13.0015,31.0001 C13.0015,31.5531 12.5545,32.0001 12.0015,32.0001 C11.4485,32.0001 11.0015,31.5531 11.0015,31.0001 L11.0015,20.4541 C11.0015,19.9011 11.4485,19.4541 12.0015,19.4541 Z M20.0024,15.9678 C20.5544,15.9678 21.0024,16.4148 21.0024,16.9678 L21.0024,30.9998 C21.0024,31.5528 20.5544,31.9998 20.0024,31.9998 C19.4504,31.9998 19.0024,31.5528 19.0024,30.9998 L19.0024,16.9678 C19.0024,16.4148 19.4504,15.9678 20.0024,15.9678 Z M28.0034,10.8369 C28.5564,10.8369 29.0034,11.2839 29.0034,11.8369 L29.0034,30.9999 C29.0034,31.5529 28.5564,31.9999 28.0034,31.9999 C27.4514,31.9999 27.0034,31.5529 27.0034,30.9999 L27.0034,11.8369 C27.0034,11.2839 27.4514,10.8369 28.0034,10.8369 Z" id="path-1"></path>
    </defs>
    <g id="brand-icons/community/brand-reporting" stroke="none" stroke-width="1" fill="none" fill-rule="evenodd">
        <mask id="mask-2" fill="white">
            <use xlink:href="#path-1"></use>
        </mask>
        <g id="Mask"></g>
        <g id="z_atom/Icon-color/brand-black" mask="url(#mask-2)" fill="#2D2E33">
            <rect id="Rectangle-15" x="0" y="0" width="32" height="32"></rect>
        </g>
    </g>
</svg>

<svg id="e7189d9a-04a8-4745-b9e5-0440f4c88ef8" data-name="Layer 1" xmlns="http://www.w3.org/2000/svg" viewBox="0 0 26 32"><title>reporting</title><path id="a552a876-8568-4441-8cf3-54ea0344e8da" data-name="path-1" d="M20.9.4l3.4,4.2A1,1,0,0,1,24.1,6a1.42,1.42,0,0,1-.6.2.91.91,0,0,1-.8-.4L20.9,3.5A17.12,17.12,0,0,1,4,18.2a1,1,0,0,1,0-2A15.18,15.18,0,0,0,19,3.3L16.6,5.2a1,1,0,0,1-1.2-1.6L19.6.2a.1.1,0,0,0,.1-.1c.1,0,.1-.1.2-.1h.5c.1,0,.1,0,.2.1a.1.1,0,0,1,.1.1.22.22,0,0,1,.2.2ZM4,24.3a.94.94,0,0,1,1,1V31a.94.94,0,0,1-1,1,.94.94,0,0,1-1-1V25.3A1,1,0,0,1,4,24.3Zm8-4.8a.94.94,0,0,1,1,1V31a1,1,0,0,1-2,0V20.5A.94.94,0,0,1,12,19.5ZM20,16a.94.94,0,0,1,1,1V31a1,1,0,0,1-2,0V17A.94.94,0,0,1,20,16Zm8-5.2a.94.94,0,0,1,1,1V31a1,1,0,0,1-2,0V11.8A1,1,0,0,1,28,10.8Z" transform="translate(-3)" fill="#1f2555" fill-rule="evenodd"/></svg>
